SF_Symbols/square.on.circle.svg

<?xml version="1.0" encoding="UTF-8"?>
<svg xmlns="http://www.w3.org/2000/svg" xmlns:xlink="http://www.w3.org/1999/xlink" width="24" height="24" viewBox="0 0 24 24" version="1.1">
<g id="surface1">
<path style=" stroke:none;fill-rule:nonzero;fill:rgb(100%,100%,100%);fill-opacity:1;" d="M 0.144531 9.011719 C 0.144531 10.074219 0.328125 11.078125 0.6875 12.03125 C 1.046875 12.976562 1.550781 13.828125 2.199219 14.582031 C 2.851562 15.332031 3.609375 15.957031 4.480469 16.457031 C 5.355469 16.957031 6.300781 17.289062 7.324219 17.449219 L 7.324219 15.832031 C 6.253906 15.625 5.296875 15.195312 4.457031 14.542969 C 3.617188 13.890625 2.953125 13.085938 2.457031 12.136719 C 1.972656 11.175781 1.730469 10.136719 1.730469 9.011719 C 1.730469 8.050781 1.910156 7.152344 2.269531 6.3125 C 2.632812 5.472656 3.128906 4.734375 3.761719 4.09375 C 4.398438 3.453125 5.140625 2.953125 5.980469 2.59375 C 6.828125 2.234375 7.730469 2.050781 8.6875 2.050781 C 9.742188 2.050781 10.722656 2.269531 11.625 2.707031 C 12.535156 3.140625 13.316406 3.730469 13.96875 4.480469 C 14.621094 5.230469 15.085938 6.085938 15.363281 7.050781 L 17.011719 7.050781 C 16.789062 6.109375 16.421875 5.234375 15.90625 4.4375 C 15.390625 3.640625 14.765625 2.945312 14.019531 2.355469 C 13.285156 1.757812 12.460938 1.296875 11.550781 0.96875 C 10.648438 0.636719 9.695312 0.46875 8.6875 0.46875 C 7.507812 0.46875 6.398438 0.691406 5.363281 1.136719 C 4.335938 1.578125 3.429688 2.195312 2.644531 2.980469 C 1.859375 3.757812 1.246094 4.664062 0.800781 5.699219 C 0.363281 6.726562 0.144531 7.828125 0.144531 9.011719 Z M 10.113281 23.519531 L 20.574219 23.519531 C 21.664062 23.519531 22.480469 23.25 23.019531 22.707031 C 23.570312 22.171875 23.84375 21.367188 23.84375 20.292969 L 23.84375 9.75 C 23.84375 8.671875 23.570312 7.867188 23.019531 7.332031 C 22.480469 6.792969 21.664062 6.519531 20.574219 6.519531 L 10.113281 6.519531 C 9.023438 6.519531 8.207031 6.792969 7.667969 7.332031 C 7.125 7.867188 6.855469 8.671875 6.855469 9.75 L 6.855469 20.292969 C 6.855469 21.367188 7.125 22.171875 7.667969 22.707031 C 8.207031 23.25 9.023438 23.519531 10.113281 23.519531 Z M 10.144531 21.84375 C 9.625 21.84375 9.226562 21.703125 8.949219 21.425781 C 8.671875 21.148438 8.53125 20.738281 8.53125 20.199219 L 8.53125 9.84375 C 8.53125 9.300781 8.671875 8.890625 8.949219 8.613281 C 9.226562 8.335938 9.625 8.199219 10.144531 8.199219 L 20.550781 8.199219 C 21.074219 8.199219 21.472656 8.335938 21.75 8.613281 C 22.027344 8.890625 22.167969 9.300781 22.167969 9.84375 L 22.167969 20.199219 C 22.167969 20.738281 22.027344 21.148438 21.75 21.425781 C 21.472656 21.703125 21.074219 21.84375 20.550781 21.84375 Z M 10.144531 21.84375 "/>
</g>
</svg>

<svg xmlns="http://www.w3.org/2000/svg" width="24" height="24"><path style="stroke:none;fill-rule:nonzero;fill:#fff;fill-opacity:1" d="M.145 9.012a8.492 8.492 0 0 0 2.054 5.57 8.788 8.788 0 0 0 2.281 1.875c.875.5 1.82.832 2.844.992v-1.617a6.68 6.68 0 0 1-2.867-1.289 7.302 7.302 0 0 1-2-2.406c-.484-.961-.727-2-.727-3.125 0-.961.18-1.86.54-2.7a7.181 7.181 0 0 1 1.492-2.218 7.026 7.026 0 0 1 2.218-1.5 6.853 6.853 0 0 1 2.707-.543c1.055 0 2.036.219 2.938.656a7.15 7.15 0 0 1 2.344 1.773 6.683 6.683 0 0 1 1.394 2.57h1.649a8.263 8.263 0 0 0-1.106-2.612 8.632 8.632 0 0 0-1.886-2.083A8.455 8.455 0 0 0 11.55.97a8.23 8.23 0 0 0-2.863-.5c-1.18 0-2.289.222-3.324.668A8.724 8.724 0 0 0 2.645 2.98 8.55 8.55 0 0 0 .8 5.7a8.383 8.383 0 0 0-.656 3.312Zm9.968 14.508h10.461c1.09 0 1.906-.27 2.446-.813.55-.535.824-1.34.824-2.414V9.75c0-1.078-.274-1.883-.824-2.418-.54-.539-1.356-.812-2.446-.812h-10.46c-1.09 0-1.907.273-2.446.812-.543.535-.813 1.34-.813 2.418v10.543c0 1.074.27 1.879.813 2.414.539.543 1.355.813 2.445.813Zm.032-1.676c-.52 0-.918-.14-1.196-.418-.277-.278-.418-.688-.418-1.227V9.844c0-.543.14-.953.418-1.23.278-.278.676-.415 1.196-.415H20.55c.523 0 .922.137 1.199.414.277.278.418.688.418 1.23V20.2c0 .54-.14.95-.418 1.227-.277.277-.676.418-1.2.418Zm0 0"/></svg>
